!!!ONB: MCCC : ILB0178_01 : Extracted Monophonic Melody
!!!COM: Beethoven, Ludwig van
!!!OPR: Piano Sonata No.17
!!!OMV: 1
!!!SCT: Op.31 No.2
!!!ODT: 1801///
**kern
*thru
*staff1
*Ipiano
*>A
*clefG2
*k[b-]
*d:
*M4/4
*MM40
4c#
4e
=2
2.a
*MM168
8a
8g
=3
8g
8f
8f
8e
8e
8d
8a
8g
=4
8g
8f
8f
8e
8e
8d
8dd
8cc
=5
8cc
8b-
8b-
8a
8a
8g
8g
8g#
=6
*MM60
4.g#
16b
16a
2a
=7
*MM40
2r
4e
4g
=8
2.cc
*MM168
8cc
8b-
=9
8b-
8g#
8g#
8a
8a
8dd
8dd
8cc
=10
8cc
8a
8a
8b-
8b-
8ee-
8ee-
8dd
=11
8dd
8cc#
8cc#
8bb-
8bb-
8ee
8ee
8ccc#
=12
8ccc#
8ff
8ff
8ddd
8ddd
8ff
8ff
8fff
=13
8fff
8ccc#
8ccc#
8ddd
8ddd
8gg#
8gg#
8aa
=14
8aa
8ee
8ee
8ff
8ff
8cc#
8cc#
8dd
=15
8dd
8g#
8g#
8a
8a
8e
8e
8f
=16
8f
8c#
8c#
8d
8d
8B-
8B-
8A
=17
8A
8c#
8c#
8d
8d
8B-
8B-
8A
=18
8A
8c#
8c#
8d
8d
8B-
8B-
8A
=19
8A
8B-
8B
8c
8c#
8d
8e-
8e
=20
8f
8f#
8g
8g#
8a
8b-
8c#
8a
=21
1r
=22
2r
4r
4a
=23
4g#
4a
4b-
4a
=24
2a
2a
=25
1r
=26
2r
4r
4a
=27
4g#
4a
4b-
4a
=28
2a
2a
=29
12a
12d
12A
12d
12A
12d
12A
12d
12A
12d
12A
12d
=30
2r
4dd
4r
=31
12e
12B
12e
12B
12e
12B
12e
12B
12e
12B
12e
12B
=32
2r
4ee
4r
=33
12f
12c
12f
12c
12f
12c
12f
12c
12f
12c
12f
12c
=34
2r
4ff
4r
=35
12g#
12d
12g#
12d
12g#
12d
12g#
12d
12g#
12d
12g#
12d
=36
2r
4gg#
4r
=37
12a
12e
12a
12e
12a
12e
12a
12e
12a
12e
12a
12e
=38
12a
12cc
12a
12cc
12a
12cc
4aa
12cc
12a
12cc
=39
12a
12cc
12a
12cc
12a
12cc
4aa
12cc
12a
12cc
=40
12a
12cc
12a
12cc
12a
12cc
4aa
12cc
12a
12cc
=41
4gg#
2r
8bb
8gg#
=42
8ee
8ff
8ff
8dd
4r
8bb
8gg#
=43
8ee
8ff
8ff
8dd
4r
8bb
8gg#
=44
8ee
8ff
8ff
8dd
8dd
8cc
8cc
8b
=45
8b
8cc
4a
4r
8ccc
8aa
=46
8dd#
8ee
8ee
8cc
4r
8ccc
8aa
=47
8dd#
8ee
8ee
8cc
4r
8ccc
8aa
=48
8dd#
8ee
8ee
8cc
8cc
8b
8b
8a
=49
8a
8g#
4b
4r
8fff
8ddd
=50
8ccc#
8ddd
4bb
4r
8fff
8ddd
=51
8ccc#
8ddd
4bb
4r
8fff
8ddd
=52
8bb
8ddd
8gg#
8bb
8ff
8gg#
8dd
8ff
=53
8b
8dd
8g#
8b
8f
8g#
8d
8f
=54
8B
8d
8G#
8B
8D
8B
8G#
8D
=55
4C
4A
2B-[
=56
2B-]
4A
4G#
=57
4A
4a
2b-[
=58
2b-]
4a
4g#
=59
4a
4aa
2bb-[
=60
4bb-]
4bb
2ccc[
=61
4ccc]
4ccc#
4ddd
4eee
=62
4fff
2ff
4ee
=63
4a
4r
4r
4e
=64
4f
2dd
4dd
=65
4cc#
4r
4r
4e
=66
4f
2ff
4ff
=67
4ee
4r
4r
4e
=68
4f
2ff
[4fff
=69
4fff]
4r
4r
4ff
=70
4ee
4r
4r
4eee
=71
4ddd
4r
4r
4dd
=72
4cc
4r
4r
[4ccc
=73
4ccc]
4r
4r
4b
=74
4b
4r
4r
4gg#
=75
8aa
8ee
8cc
8ccc
8bb
8gg#
8ee
8ddd
=76
8ccc
8aa
8ee
8eee
8ddd#
8eee
8ddd#
8eee
=77
2eee
2ddd
=78
2ccc
2bb
=79
8aa
8ee
8cc
8ccc
8bb
8gg#
8ee
8ddd
=80
8ccc
8aa
8ee
8eee
8ddd#
8eee
8ddd#
8eee
=81
2.ee
[4ddd
=82
4ddd]
2ccc
4bb
=83
8aa
8ee
8cc
8ccc
8bb
8gg#
8ee
8ddd
=84
8ccc
8aa
8ee
8eee
8ddd#
8eee
8ddd#
8eee
=85
8ccc
8aa
8ee
8eee
8ddd#
8eee
8ddd#
8eee
=86
8ccc
8aa
8ee
8eee
8ddd#
8eee
8ddd#
8eee
=87
4aa
4r
2A
=88
2A
2A
=89
*>A1
1A[
=90
1A]
=91
2G
2F
=92
2E
4F
4D
=93
*>A
*M4/4
*MM40
2r
4c#
4e
=94
2.a
*MM168
8a
8g
=95
8g
8f
8f
8e
8e
8d
8a
8g
=96
8g
8f
8f
8e
8e
8d
8dd
8cc
=97
8cc
8b-
8b-
8a
8a
8g
8g
8g#
=98
*MM60
4.g#
16b
16a
2a
=99
*MM40
2r
4e
4g
=100
2.cc
*MM168
8cc
8b-
=101
8b-
8g#
8g#
8a
8a
8dd
8dd
8cc
=102
8cc
8a
8a
8b-
8b-
8ee-
8ee-
8dd
=103
8dd
8cc#
8cc#
8bb-
8bb-
8ee
8ee
8ccc#
=104
8ccc#
8ff
8ff
8ddd
8ddd
8ff
8ff
8fff
=105
8fff
8ccc#
8ccc#
8ddd
8ddd
8gg#
8gg#
8aa
=106
8aa
8ee
8ee
8ff
8ff
8cc#
8cc#
8dd
=107
8dd
8g#
8g#
8a
8a
8e
8e
8f
=108
8f
8c#
8c#
8d
8d
8B-
8B-
8A
=109
8A
8c#
8c#
8d
8d
8B-
8B-
8A
=110
8A
8c#
8c#
8d
8d
8B-
8B-
8A
=111
8A
8B-
8B
8c
8c#
8d
8e-
8e
=112
8f
8f#
8g
8g#
8a
8b-
8c#
8a
=113
1r
=114
2r
4r
4a
=115
4g#
4a
4b-
4a
=116
2a
2a
=117
1r
=118
2r
4r
4a
=119
4g#
4a
4b-
4a
=120
2a
2a
=121
12a
12d
12A
12d
12A
12d
12A
12d
12A
12d
12A
12d
=122
2r
4dd
4r
=123
12e
12B
12e
12B
12e
12B
12e
12B
12e
12B
12e
12B
=124
2r
4ee
4r
=125
12f
12c
12f
12c
12f
12c
12f
12c
12f
12c
12f
12c
=126
2r
4ff
4r
=127
12g#
12d
12g#
12d
12g#
12d
12g#
12d
12g#
12d
12g#
12d
=128
2r
4gg#
4r
=129
12a
12e
12a
12e
12a
12e
12a
12e
12a
12e
12a
12e
=130
12a
12cc
12a
12cc
12a
12cc
4aa
12cc
12a
12cc
=131
12a
12cc
12a
12cc
12a
12cc
4aa
12cc
12a
12cc
=132
12a
12cc
12a
12cc
12a
12cc
4aa
12cc
12a
12cc
=133
4gg#
2r
8bb
8gg#
=134
8ee
8ff
8ff
8dd
4r
8bb
8gg#
=135
8ee
8ff
8ff
8dd
4r
8bb
8gg#
=136
8ee
8ff
8ff
8dd
8dd
8cc
8cc
8b
=137
8b
8cc
4a
4r
8ccc
8aa
=138
8dd#
8ee
8ee
8cc
4r
8ccc
8aa
=139
8dd#
8ee
8ee
8cc
4r
8ccc
8aa
=140
8dd#
8ee
8ee
8cc
8cc
8b
8b
8a
=141
8a
8g#
4b
4r
8fff
8ddd
=142
8ccc#
8ddd
4bb
4r
8fff
8ddd
=143
8ccc#
8ddd
4bb
4r
8fff
8ddd
=144
8bb
8ddd
8gg#
8bb
8ff
8gg#
8dd
8ff
=145
8b
8dd
8g#
8b
8f
8g#
8d
8f
=146
8B
8d
8G#
8B
8D
8B
8G#
8D
=147
4C
4A
2B-[
=148
2B-]
4A
4G#
=149
4A
4a
2b-[
=150
2b-]
4a
4g#
=151
4a
4aa
2bb-[
=152
4bb-]
4bb
2ccc[
=153
4ccc]
4ccc#
4ddd
4eee
=154
4fff
2ff
4ee
=155
4a
4r
4r
4e
=156
4f
2dd
4dd
=157
4cc#
4r
4r
4e
=158
4f
2ff
4ff
=159
4ee
4r
4r
4e
=160
4f
2ff
[4fff
=161
4fff]
4r
4r
4ff
=162
4ee
4r
4r
4eee
=163
4ddd
4r
4r
4dd
=164
4cc
4r
4r
[4ccc
=165
4ccc]
4r
4r
4b
=166
4b
4r
4r
4gg#
=167
8aa
8ee
8cc
8ccc
8bb
8gg#
8ee
8ddd
=168
8ccc
8aa
8ee
8eee
8ddd#
8eee
8ddd#
8eee
=169
2eee
2ddd
=170
2ccc
2bb
=171
8aa
8ee
8cc
8ccc
8bb
8gg#
8ee
8ddd
=172
8ccc
8aa
8ee
8eee
8ddd#
8eee
8ddd#
8eee
=173
2.ee
[4ddd
=174
4ddd]
2ccc
4bb
=175
8aa
8ee
8cc
8ccc
8bb
8gg#
8ee
8ddd
=176
8ccc
8aa
8ee
8eee
8ddd#
8eee
8ddd#
8eee
=177
8ccc
8aa
8ee
8eee
8ddd#
8eee
8ddd#
8eee
=178
8ccc
8aa
8ee
8eee
8ddd#
8eee
8ddd#
8eee
=179
4aa
4r
2A
=180
2A
2A
=181
*>A2
1A[
=182
1A]
=183
1G[
=184
1G]
=185
*>B
*MM40
2d
4f#
4a
=186
2.dd
4r
=187
2f#
4a
4dd#
=188
2.ff#
4r
=189
2a#
4cc#
4ff#
=190
1aa#
=191
*MM168
12A
12c#
12A
12c#
12A
12c#
12A
12c#
12A
12c#
12A
12c#
=192
12A
12c#
12A
12c#
12A
12c#
12A
12c#
12A
12c#
12A
12c#
=193
12A
12c#
12A
12c#
12A
12c#
12A
12c#
12A
12c#
12A
12c#
=194
12A
12c#
12A
12c#
12A
12c#
12A
12c#
12A
12c#
12A
12c#
=195
12B
12c#
12B
12c#
12B
12c#
12B
12c#
12B
12c#
12B
12c#
=196
12B
12c#
12B
12c#
12B
12c#
12B
12c#
12B
12c#
12B
12c#
=197
12B
12c#
12B
12c#
12B
12c#
12B
12c#
12B
12c#
12B
12c#
=198
12B
12c#
12B
12c#
12B
12c#
12B
12c#
12B
12c#
12B
12c#
=199
12F#
12c#
12F#
12c#
12F#
12c#
12F#
12c#
12F#
12c#
12F#
12c#
=200
12F#
12c#
12F#
12c#
12F#
12c#
12F#
12c#
12F#
12c#
12F#
12c#
=201
12F#
12d
12F#
12d
12F#
12d
12F#
12d
12F#
12d
12F#
12d
=202
12F#
12d
12F#
12d
12F#
12d
12F#
12d
12F#
12d
12F#
12d
=203
12G
12d
12G
12d
12G
12d
12G
12d
12G
12d
12G
12d
=204
12G
12d
12G
12d
12G
12d
12G
12d
12G
12d
12G
12d
=205
12G
12e
12G
12e
12G
12e
12G
12e
12G
12e
12G
12e
=206
12G
12e
12G
12e
12G
12e
12G
12e
12G
12e
12G
12e
=207
12A
12e
12A
12e
12A
12e
12A
12e
12A
12e
12A
12e
=208
12A
12e
12A
12e
12A
12e
12A
12e
12A
12e
12A
12e
=209
12A
12f
12A
12f
12A
12f
12A
12f
12A
12f
12A
12f
=210
12A
12f
12A
12f
12A
12f
12A
12f
12A
12f
12A
12f
=211
2r
4gg#
4r
=212
2r
4ddd
4r
=213
8ccc#
8a
8g#
8a
8g#
8a
8g#
8a
=214
8g#
8a
8ee
8a
8ff
8a
8dd
8a
=215
8ee
8a
8ee
8a
8ff
8a
8dd
8a
=216
8ee
8a
8ee
8a
8ff
8a
8dd
8a
=217
8ee
8a
8g#
8a
8g#
8a
8g#
8a
=218
8g#
8a
8e
8a
8f
8a
8d
8a
=219
8e
8a
8e
8a
8f
8a
8d
8a
=220
8e
8a
8e
8a
8f
8a
8d
8a
=221
8e
8A
8G#
8A
8G#
8A
8G#
8A
=222
8G#
8A
8e
8A
8f
8A
8d
8A
=223
8e
8A
8e
8A
8f
8A
8d
8A
=224
8e
8A
8e
8A
8f
8A
8d
8A
=225
1e
=226
1d
=227
1c#
=228
1B-
=229
1A[
=230
1A]
=231
2.B-
4A
=232
4G
4F
4E-
4D
=233
4C#
4G
4B-
4A
=234
4G
4F
4E-
4D
=235
*MM40
2A
4c#
4e
=236
2a[
8a]
8a
8a
8b-
=237
4a
4g[
8..g]
32g
8..ee
32dd
=238
4dd
2cc#
4ee
=239
4.ee
8g
4.b-
8a
=240
4g
4f
4r
*MM168
8a
8g
=241
8g
8f
8f
8e
8e
8d
8a
8g
=242
8g
8f
8f
8e
8e
8d
8dd
8cc
=243
8cc
8b-
8b-
8a
8a
8g
8g
8g#
=244
*MM60
4.g#
16b
16a
2a
=245
*MM40
2r
4e
4g
=246
1cc
=247
2dd-
4..d-
16d-
=248
4c
4B-[
8B-]
8g
8g
8a-
=249
4.b-
8b-
4dd-
8cc
8g
=250
1a-
=251
*MM168
4g#
4r
4g#
4r
=252
4g#
4r
4g#
4r
=253
12a
12f#
12c#
4r
4r
4r
=254
12a
12f#
12c#
12A
12c#
12f#
12a
12cc#
12ff#
16aa
16ff#
16cc#
16a
=255
4a
4r
4a
4r
=256
4a
4r
4a
4r
=257
12b-
12g
12d
4r
4r
4r
=258
12b-
12g
12d
12B-
12d
12g
12b-
12dd
12gg
16bb-
16gg
16dd
16b-
=259
4ee
4r
4ee
4r
=260
4ee
4r
4ee
4r
=261
12ff
12dd
12b
12g#
12f
12dd
12b
12g#
12f
12d
12f
12g#
=262
12b
12dd
12ff
12gg#
12bb
12ddd
4fff
4ddd
=263
4ccc#
4r
4r
8eee
8ccc#
=264
8aa
8bb-
8bb-
8gg
4r
8eee
8ccc#
=265
8aa
8bb-
8bb-
8gg
4r
8eee
8ccc#
=266
8aa
8bb-
8bb-
8gg
8gg
8ff
8ff
8ee
=267
8ee
8ff
4dd
4r
8fff
8ddd
=268
8gg#
8aa
8aa
8ff
4r
8fff
8ddd
=269
8gg#
8aa
8aa
8ff
4r
8fff
8ddd
=270
8gg#
8aa
8aa
8ff
8ff
8ee
8ee
8dd
=271
8dd
8cc#
4ee
4r
8bb-
8gg
=272
8dd#
8ee
4cc#
4r
8bb-
8gg
=273
8dd#
8ee
4cc#
4r
8bb-
8gg
=274
8ee
8gg
8cc#
8ee
8b-
8cc#
8g
8b-
=275
8e
8g
8c#
8e
8B-
8c#
8G
8B-
=276
8E
8G
8C#
8E
8GG
8E
8C#
8GG
=277
4FF
4d
2e-[
=278
2e-]
4d
4c#
=279
4d
4dd
2ee-[
=280
2ee-]
4dd
4cc#
=281
4dd
4ddd
2ddd[
=282
4ddd]
4ddd
2ddd[
=283
4ddd]
2ddd
[4ddd
=284
4ddd]
2bb-
4aa
=285
4dd
4r
4r
4A
=286
4B-
2g
4g
=287
4f#
4r
4r
4A
=288
4B-
2b-
4b-
=289
4a
4r
4r
4A
=290
4B-
2b-
[4bb-
=291
4bb-]
4r
4r
4b-
=292
4a
4r
4r
4aa
=293
4gg
4r
4r
4g
=294
4f
4r
4r
[4ff
=295
4ff]
4r
4r
[4ddd
=296
4ddd]
4r
4r
4cc#
=297
8dd
8a
8f
8ff
8ee
8cc#
8a
8gg
=298
8ff
8dd
8a
8aa
8gg#
8aa
8gg#
8aa
=299
2aa
2gg
=300
2ff
2ee
=301
8dd
8a
8f
8ff
8ee
8cc#
8a
8gg
=302
8ff
8dd
8a
8aa
8gg#
8aa
8gg#
8aa
=303
2.a
[4gg
=304
4gg]
2ff
4ee
=305
8dd
8a
8f
8ff
8ee
8cc#
8a
8gg
=306
8ff
8dd
8a
8aa
8gg#
8aa
8gg#
8aa
=307
8ff
8dd
8a
8aa
8gg#
8aa
8gg#
8aa
=308
8ff
8dd
8a
8aa
8gg#
8aa
8gg#
8aa
=309
4dd
4r
2d
=310
2d
2d
=311
[1d
=312
1d_
=313
1d_
=314
1d_
=315
1d_
=316
1d_
=317
1d]
=318
1ff
=319
[1dd
=320
1dd]
==
*-
